startshape startclouds
CF::Background = [ b -0.1 h 220 sat 0.7 ]

shape startclouds
{
	loop 10 [ x 1 ] startcloud [ a -1 ]
}

shape startcloud
rule * 1.96001307297 {
	side [ y -0.5 ]
}

rule * 5.65916088308{
	side [ y 0.5 ]
}

shape cloud
{
	step [ ]
	horiz [ s 0.7 ]
	side [ ]
}

shape side
rule 100{
	step [ ]
	cloud [ x -1 a 0.001 ] 
// Values up to 'a 0.005' or such are also good in this rule — increasing it makes the cloud thicker.
}

rule 0.568248135674{
	step [ ]
	cloud [ x 1 a 0.001 ]
// Values up to 'a 0.005' or such are also good in this rule — increasing it makes the cloud thicker.
}

rule 0.317620183472{}

shape horiz
rule 0.198552857129{
	step [ ]
	rotatecloud [ y -1 ]
}

rule 0.168796507433{
	step [ ]
	rotatecloud [ y 1 ]
}

shape rotatecloud
rule 0.101065381657{
	cloud [ r 15 ]
}

rule 43.6101630895{
	cloud [ r -15 ]
}

shape step
rule 27.6849962259{
	SQUARE [ b 1 ]
}

rule 4.85328232308{
	CIRCLE [ b 1 ]
}

